Dominus_Funeral/22/apps/rawtherapee.svg

<svg xmlns="http://www.w3.org/2000/svg" xmlns:xlink="http://www.w3.org/1999/xlink" width="24" height="24" viewBox="0 0 6.35 6.35"><defs><clipPath id="a"><use width="100%" height="100%" overflow="visible" xlink:href="#SVGID_6_"/></clipPath></defs><path clip-path="url(#a)" transform="translate(1.92 -5.5) scale(.18493)" d="M24 24l-.03-.05.01.05z" fill="#ffb300"/><path clip-path="url(#a)" transform="translate(1.92 -5.5) scale(.18493)" d="M24 24h.02z" fill="#ff8700"/><path clip-path="url(#a)" transform="translate(1.92 -5.5) scale(.18493)" d="M23.88 23.97l.03.03.02-.02z" fill="#ffb300"/><path clip-path="url(#a)" transform="translate(1.92 -5.5) scale(.18493)" d="M23.93 23.98h.01z" fill="#ff8700"/><g stroke-width="1.2"><path d="M3.17.26c-.74 0-1.48.3-2.06.86l1.24 1.23a1.17 1.17 0 0 1 .01-.01 1.17 1.17 0 0 1 .09-.07 1.17 1.17 0 0 1 .1-.08 1.17 1.17 0 0 1 .1-.05 1.17 1.17 0 0 1 .1-.05 1.17 1.17 0 0 1 .11-.04 1.17 1.17 0 0 1 .12-.02 1.17 1.17 0 0 1 .1-.01 1.17 1.17 0 0 1 .1 0z" fill="#1a1a1a"/><path d="M3.17.26v1.76a1.17 1.17 0 0 1 .12 0 1.17 1.17 0 0 1 .11.02 1.17 1.17 0 0 1 .12.03 1.17 1.17 0 0 1 .11.03 1.17 1.17 0 0 1 .1.06 1.17 1.17 0 0 1 .1.05 1.17 1.17 0 0 1 .1.08 1.17 1.17 0 0 1 .07.07l1.23-1.25A2.9 2.9 0 0 0 3.17.26z" fill="#4d4d4d"/><path d="M1.11 1.12a2.9 2.9 0 0 0-.85 2.06h1.75a1.17 1.17 0 0 1 0-.12 1.17 1.17 0 0 1 .02-.11 1.17 1.17 0 0 1 .03-.12 1.17 1.17 0 0 1 .04-.11 1.17 1.17 0 0 1 .06-.1 1.17 1.17 0 0 1 .05-.1 1.17 1.17 0 0 1 .08-.1 1.17 1.17 0 0 1 .06-.07z" fill="#b3b3b3"/><path d="M2 3.18H.27c0 .74.29 1.48.85 2.06L2.35 4A1.17 1.17 0 0 1 2.34 4a1.17 1.17 0 0 1-.07-.09 1.17 1.17 0 0 1-.08-.1 1.17 1.17 0 0 1-.06-.1 1.17 1.17 0 0 1-.04-.1 1.17 1.17 0 0 1-.04-.11 1.17 1.17 0 0 1-.03-.12 1.17 1.17 0 0 1-.01-.1 1.17 1.17 0 0 1 0-.1zM5.23 1.12L4 2.35a1.17 1.17 0 0 1 .01.02 1.17 1.17 0 0 1 .07.09 1.17 1.17 0 0 1 .08.1 1.17 1.17 0 0 1 .05.09 1.17 1.17 0 0 1 .05.1 1.17 1.17 0 0 1 .04.12 1.17 1.17 0 0 1 .02.1 1.17 1.17 0 0 1 .01.12 1.17 1.17 0 0 1 0 .09H6.1c0-.75-.29-1.5-.86-2.06z" fill="gray"/><path d="M4 4l1.23 1.24a2.9 2.9 0 0 0 .86-2.06H4.33a1.17 1.17 0 0 1 0 .11 1.17 1.17 0 0 1-.02.12 1.17 1.17 0 0 1-.03.11 1.17 1.17 0 0 1-.03.11 1.17 1.17 0 0 1-.06.1 1.17 1.17 0 0 1-.05.1 1.17 1.17 0 0 1-.08.1A1.17 1.17 0 0 1 4 4z" fill="#666"/><path d="M2.35 4L1.1 5.24a2.9 2.9 0 0 0 2.06.85V4.34a1.17 1.17 0 0 1-.11 0 1.17 1.17 0 0 1-.11-.02 1.17 1.17 0 0 1-.12-.03 1.17 1.17 0 0 1-.11-.04 1.17 1.17 0 0 1-.1-.05 1.17 1.17 0 0 1-.1-.06 1.17 1.17 0 0 1-.1-.08A1.17 1.17 0 0 1 2.36 4z" fill="#333"/><path d="M3.17 4.34V6.1a2.9 2.9 0 0 0 2.06-.85L4 4a1.17 1.17 0 0 1-.02.01 1.17 1.17 0 0 1-.09.07 1.17 1.17 0 0 1-.1.08 1.17 1.17 0 0 1-.09.06 1.17 1.17 0 0 1-.1.04 1.17 1.17 0 0 1-.12.04 1.17 1.17 0 0 1-.1.03 1.17 1.17 0 0 1-.12.01 1.17 1.17 0 0 1-.09 0z" fill="#b3b3b3"/></g></svg>

<?xml version="1.0" encoding="UTF-8" standalone="no"?>
<svg
   xmlns:dc="http://purl.org/dc/elements/1.1/"
   xmlns:cc="http://creativecommons.org/ns#"
   xmlns:rdf="http://www.w3.org/1999/02/22-rdf-syntax-ns#"
   xmlns:svg="http://www.w3.org/2000/svg"
   xmlns="http://www.w3.org/2000/svg"
   xmlns:xlink="http://www.w3.org/1999/xlink"
   xmlns:sodipodi="http://sodipodi.sourceforge.net/DTD/sodipodi-0.dtd"
   xmlns:inkscape="http://www.inkscape.org/namespaces/inkscape"
   width="24"
   height="24"
   viewBox="0 0 6.35 6.35"
   version="1.1"
   id="svg31"
   sodipodi:docname="rawtherapee.svg"
   inkscape:version="0.92.4 (5da689c313, 2019-01-14)">
  <metadata
     id="metadata35">
    <rdf:RDF>
      <cc:Work
         rdf:about="">
        <dc:format>image/svg+xml</dc:format>
        <dc:type
           rdf:resource="http://purl.org/dc/dcmitype/StillImage" />
        <dc:title></dc:title>
      </cc:Work>
    </rdf:RDF>
  </metadata>
  <sodipodi:namedview
     pagecolor="#ffffff"
     bordercolor="#666666"
     borderopacity="1"
     objecttolerance="10"
     gridtolerance="10"
     guidetolerance="10"
     inkscape:pageopacity="0"
     inkscape:pageshadow="2"
     inkscape:window-width="1112"
     inkscape:window-height="480"
     id="namedview33"
     showgrid="false"
     inkscape:zoom="9.8333333"
     inkscape:cx="1.0677966"
     inkscape:cy="12"
     inkscape:window-x="0"
     inkscape:window-y="25"
     inkscape:window-maximized="0"
     inkscape:current-layer="svg31" />
  <defs
     id="defs5">
    <clipPath
       id="a">
      <use
         width="100%"
         height="100%"
         overflow="visible"
         xlink:href="#SVGID_6_"
         id="use2" />
    </clipPath>
  </defs>
  <path
     clip-path="url(#a)"
     transform="matrix(0.18493,0,0,0.18493,1.92,-5.5)"
     d="M 24,24 23.97,23.95 23.98,24 Z"
     id="path7"
     inkscape:connector-curvature="0"
     style="fill:#ffb300" />
  <path
     clip-path="url(#a)"
     transform="matrix(0.18493,0,0,0.18493,1.92,-5.5)"
     d="m 24,24 h 0.02 z"
     id="path9"
     inkscape:connector-curvature="0"
     style="fill:#ff8700" />
  <path
     clip-path="url(#a)"
     transform="matrix(0.18493,0,0,0.18493,1.92,-5.5)"
     d="M 23.88,23.97 23.91,24 23.93,23.98 Z"
     id="path11"
     inkscape:connector-curvature="0"
     style="fill:#ffb300" />
  <path
     clip-path="url(#a)"
     transform="matrix(0.18493,0,0,0.18493,1.92,-5.5)"
     d="m 23.93,23.98 h 0.01 z"
     id="path13"
     inkscape:connector-curvature="0"
     style="fill:#ff8700" />
  <g
     id="g29"
     style="stroke-width:1.20000005">
    <path
       d="m 3.17,0.26 c -0.74,0 -1.48,0.3 -2.06,0.86 L 2.35,2.35 A 1.17,1.17 0 0 1 2.36,2.34 1.17,1.17 0 0 1 2.45,2.27 1.17,1.17 0 0 1 2.55,2.19 1.17,1.17 0 0 1 2.65,2.14 1.17,1.17 0 0 1 2.75,2.09 1.17,1.17 0 0 1 2.86,2.05 1.17,1.17 0 0 1 2.98,2.03 a 1.17,1.17 0 0 1 0.1,-0.01 1.17,1.17 0 0 1 0.1,0 z"
       id="path15"
       inkscape:connector-curvature="0"
       style="fill:#1a1a1a" />
    <path
       d="m 3.17,0.26 v 1.76 a 1.17,1.17 0 0 1 0.12,0 1.17,1.17 0 0 1 0.11,0.02 1.17,1.17 0 0 1 0.12,0.03 1.17,1.17 0 0 1 0.11,0.03 1.17,1.17 0 0 1 0.1,0.06 1.17,1.17 0 0 1 0.1,0.05 1.17,1.17 0 0 1 0.1,0.08 A 1.17,1.17 0 0 1 4,2.36 L 5.23,1.11 A 2.9,2.9 0 0 0 3.17,0.26 Z"
       id="path17"
       inkscape:connector-curvature="0"
       style="fill:#4d4d4d" />
    <path
       d="M 1.11,1.12 A 2.9,2.9 0 0 0 0.26,3.18 H 2.01 A 1.17,1.17 0 0 1 2.01,3.06 1.17,1.17 0 0 1 2.03,2.95 1.17,1.17 0 0 1 2.06,2.83 1.17,1.17 0 0 1 2.1,2.72 1.17,1.17 0 0 1 2.16,2.62 1.17,1.17 0 0 1 2.21,2.52 1.17,1.17 0 0 1 2.29,2.42 1.17,1.17 0 0 1 2.35,2.35 Z"
       id="path19"
       inkscape:connector-curvature="0"
       style="fill:#b3b3b3" />
    <path
       d="M 2,3.18 H 0.27 c 0,0.74 0.29,1.48 0.85,2.06 L 2.35,4 A 1.17,1.17 0 0 1 2.34,4 1.17,1.17 0 0 1 2.27,3.91 1.17,1.17 0 0 1 2.19,3.81 1.17,1.17 0 0 1 2.13,3.71 1.17,1.17 0 0 1 2.09,3.61 1.17,1.17 0 0 1 2.05,3.5 1.17,1.17 0 0 1 2.02,3.38 1.17,1.17 0 0 1 2.01,3.28 a 1.17,1.17 0 0 1 0,-0.1 z M 5.23,1.12 4,2.35 a 1.17,1.17 0 0 1 0.01,0.02 1.17,1.17 0 0 1 0.07,0.09 1.17,1.17 0 0 1 0.08,0.1 1.17,1.17 0 0 1 0.05,0.09 1.17,1.17 0 0 1 0.05,0.1 1.17,1.17 0 0 1 0.04,0.12 1.17,1.17 0 0 1 0.02,0.1 1.17,1.17 0 0 1 0.01,0.12 1.17,1.17 0 0 1 0,0.09 H 6.1 C 6.1,2.43 5.81,1.68 5.24,1.12 Z"
       id="path21"
       inkscape:connector-curvature="0"
       style="fill:#808080" />
    <path
       d="M 4,4 5.23,5.24 A 2.9,2.9 0 0 0 6.09,3.18 H 4.33 a 1.17,1.17 0 0 1 0,0.11 A 1.17,1.17 0 0 1 4.31,3.41 1.17,1.17 0 0 1 4.28,3.52 1.17,1.17 0 0 1 4.25,3.63 1.17,1.17 0 0 1 4.19,3.73 1.17,1.17 0 0 1 4.14,3.83 1.17,1.17 0 0 1 4.06,3.93 1.17,1.17 0 0 1 4,4 Z"
       id="path23"
       inkscape:connector-curvature="0"
       style="fill:#666666" />
    <path
       d="M 2.35,4 1.1,5.24 A 2.9,2.9 0 0 0 3.16,6.09 V 4.34 A 1.17,1.17 0 0 1 3.05,4.34 1.17,1.17 0 0 1 2.94,4.32 1.17,1.17 0 0 1 2.82,4.29 1.17,1.17 0 0 1 2.71,4.25 1.17,1.17 0 0 1 2.61,4.2 1.17,1.17 0 0 1 2.51,4.14 1.17,1.17 0 0 1 2.41,4.06 1.17,1.17 0 0 1 2.36,4 Z"
       id="path25"
       inkscape:connector-curvature="0"
       style="fill:#333333" />
    <path
       d="M 3.17,4.34 V 6.1 A 2.9,2.9 0 0 0 5.23,5.25 L 4,4 A 1.17,1.17 0 0 1 3.98,4.01 1.17,1.17 0 0 1 3.89,4.08 1.17,1.17 0 0 1 3.79,4.16 1.17,1.17 0 0 1 3.7,4.22 1.17,1.17 0 0 1 3.6,4.26 1.17,1.17 0 0 1 3.48,4.3 1.17,1.17 0 0 1 3.38,4.33 1.17,1.17 0 0 1 3.26,4.34 a 1.17,1.17 0 0 1 -0.09,0 z"
       id="path27"
       inkscape:connector-curvature="0"
       style="fill:#b3b3b3" />
  </g>
</svg>
